!!!OTL: Divertimento in D, 2. Satz, KV 136/02
!!!system-decoration: [(s1,s2,s3,s4)]
**kern	**kern	**kern	**kern	**kern	**kern	**kern	**kern	**kern	**kern	**kern	**kern	**kern	**kern	**kern	**kern
*part4	*part4	*part4	*part4	*part3	*part3	*part3	*part3	*part2	*part2	*part2	*part2	*part1	*part1	*part1	*part1
*staff16	*staff15	*staff14	*staff13	*staff12	*staff11	*staff10	*staff9	*staff8	*staff7	*staff6	*staff5	*staff4	*staff3	*staff2	*staff1
*I"Violoncello e Basso	*	*	*	*I"Viola	*	*	*	*I"Violino II	*	*	*	*I"Violino I	*	*	*
*clefF4	*clefC3	*clefG2	*clefG2
*k[f#]	*k[f#]	*k[f#]	*k[f#]
*M3/4	*M3/4	*M3/4	*M3/4
4G	4G	(8.bL	(8.ddL
.	.	32g	32b
.	.	32aJ)	32ccJ)
4r	4r	8bL	8ddL
.	.	8b	8dd
4r	4r	(8b	(8dd
.	.	8ddJ)	8ggJ)
=2	=2	=2	=2
4GG	4G	(8.bL	(8.ddL
.	.	32g	32b
.	.	32aJ)	32ccJ)
8r	8r	4b	4dd
(8GGL	(8BL	.	.
8AA	8c	4r	4r
8BBJ)	8dJ)	.	.
=3	=3	=3	=3
4C	4e	(16aL	(16ccL
.	.	16b	16dd
.	.	16cc	16ee
.	.	16aJ)	16ccJ)
4D	4d	(16gL	(16bL
.	.	16a	16cc
.	.	16b	16dd
.	.	16gJ)	16bJ)
4D	4d	(16f#yL	(16aL
.	.	16g	16b
.	.	16a	16cc
.	.	16f#yJ)	16aJ)
=4	=4	=4	=4
.	(<16qe	.	.
.	.	(<16qa	.
.	.	.	(<16qcc
4G	8dL)	8gL)	8bL)
.	16c	16f#y	16a
.	16BJ	16gJ	16gJ
8r	4B	4g	4g
8BBL	.	.	.
8D	4r	4r	4r
8BBJ	.	.	.
!!LO:LB
=5	=5	=5	=5
4GG	4G	(8.bL	(8.ddL
.	.	32g	32b
.	.	32aJ)	32ccJ)
4r	4r	8bL	8ddL
.	.	8b	8dd
4r	4r	(8b	(8dd
.	.	8ddJ)	8ggJ)
=6	=6	=6	=6
4GG	4G	(8.bL	(8.ddL
.	.	32g	32b
.	.	32aJ)	32ccJ)
8r	8r	4b	4dd
(8GGL	(8BL	.	.
8AA	8c	4r	8r
8BBJ)	8dJ)	.	8gg
=7	=7	=7	=7
.	.	.	(<16qff#y
8CL	8GL	8r	4.ee)
8C	16c	4g	.
.	16BJ	.	.
8C	8cL	.	.
.	.	.	(<16qdd
8C	8c	8eL	8ccL)
.	.	.	(<16qb
8C	8e	8c	8a)
8C#J	8EJ	8BJ	8gJ
=8	=8	=8	=8
.	.	(<16qc	.
.	.	.	(<16qa
4D	4D	8BL)	8gL)
.	.	16A	16f#y
.	.	16BJ	16gJ
8r	4r	4A	4f#y
8F#yL	.	.	.
8A	4r	4r	4r
8F#yJ	.	.	.
=9	=9	=9	=9
.	(<16qg	.	.
.	.	(<16qb	.
4D	8f#yL)	8aL)	[2.aa
.	16e	16g	.
.	16dJ	16f#yJ	.
4DD	8dL	8f#yL	.
.	8d	8f#y	.
4r	(8d	(8f#y	.
.	8f#yJ)	8aJ)	.
!!LO:LB
=10	=10	=10	=10
.	(<16qf#y	.	.
.	.	(<16qa	.
4A	8eL)	8gL)	2.aa_
.	16d	16f#y	.
.	16c#J	16eJ	.
8r	4c#y	4e	.
8AAL	.	.	.
8A	4r	4r	.
8GJ	.	.	.
=11	=11	=11	=11
4F#y	8r	4d	4aa]
.	4A	.	.
4E	.	4c#	4gg
.	4A	.	.
4D	.	4d	4ff#y
.	8A	.	.
=12	=12	=12	=12
.	.	(<16qe	.
.	.	.	(<16qgg
4AA	4A	8dL)	8ff#yL)
.	.	16c#	16ee
.	.	16dJ	16ff#yJ
8r	4A	4c#y	4ee
8AA	.	.	.
16AL	4r	4r	4r
16G	.	.	.
16F#y	.	.	.
16EJ	.	.	.
=13	=13	=13	=13
.	.	(<16qb	.
.	.	.	(<16qgg
4D	8r	8aL)	8ff#yL)
.	8A	16g	16ee
.	.	16f#yJ	16ddJ
4r	(8dL	8f#yL	8ddL
.	8f#yJ)	8f#y	8dd
4r	4a	(8f#y	(8dd
.	.	8aJ)	8ff#yJ)
!!LO:LB
=14	=14	=14	=14
.	.	(<16qa	.
.	.	.	(<16qff#y
4AA	8r	8gL)	8eeL)
.	8AL	16f#y	16dd
.	.	16eJ	16cc#J
4r	8c#	4e	4cc#y
.	8e	.	.
4r	8a	4r	4r
.	8gJ	.	.
=15	=15	=15	=15
2.BB	2f#y	2.d	(8.ddL
.	.	.	32ee
.	.	.	32ddJ)
.	.	.	(8cc#L
.	.	.	8bJ)
.	4d	.	(8aL
.	.	.	8g#J)
=16	=16	=16	=16
4AA	8c#L	8eL	4a
.	16A	16cc#	.
.	16BJ	16ddJ	.
4A	16c#yL	16eeL	4r
.	16d	16ff#y	.
.	16e	16gg	.
.	16dJ	16ff#yJ	.
.	.	(<16qaa	.
4G	8eL	8ggL)	4r
.	16f#y	16ff#y	.
.	16gJ	16eeJ	.
=17	=17	=17	=17
8F#yL	8aL	8ddL	[2ddd
8F#y	8f#yJ	8a	.
8F#y	8F#yL	8a	.
8F#y	8F#y	8a	.
8F#y	8F#y	8a	8dddL]
8F#yJ	8F#yJ	8aJ	8cccnJ
=18	=18	=18	=18
8GL	8G	8aL	(8aa#L
8G	4d	(16g	8bbJ)
.	.	16f#yJ)	.
8G	.	(8gL	4.bb
8G	(16dL	8f#y	.
.	32e	.	.
.	32f#yJ	.	.
8G	8gL)	8e	.
8GJ	8f#yJ	8dJ)	8bb
=19	=19	=19	=19
8AL	8eL	8c#L	8bb
8A	8e	8c#y	4aa
8A	8e	8c#y	.
8A	8e	8c#y	16eeL
.	.	.	16ff#yJ
8AA	8c#	8e	(24ggL
.	.	.	24ff#y
.	.	.	24eeJ)
8AAJ	8c#yJ	8eJ	(24bbL
.	.	.	24aa
.	.	.	24ggJ)
=20	=20	=20	=20
4.BB	(4c	(4e	(8.ggLT
.	.	.	32ff#y
.	.	.	32ggJ)
.	8dL)	4d)	4ff#y
(8BBL	(8d	.	.
8AA	8c#y	4r	4r
8GGJ)	8BJ)	.	.
=21	=21	=21	=21
4FF#y	4A	16r	16r
.	.	(16dL	(16ddL
.	.	16c#	16cc
.	.	16dJ	16ddJ
4r	4r	16eL	16eeL
.	.	16d	16dd
.	.	16f#y	16ff#y
.	.	16eJ	16eeJ
4r	4r	16gL	16ggL
.	.	16f#y	16ff#y
.	.	16e	16ee
.	.	16d#J)	16dd#J)
!!LO:LB
=22	=22	=22	=22
4GG	4B	16r	16r
.	.	(16eL	(16eeL
.	.	16d	16dd
.	.	16eJ	16eeJ
4r	4r	16f#yL	16ff#yL
.	.	16e	16ee
.	.	16g	16gg
.	.	16f#yJ	16ff#yJ
4C#	4e	16aL	16aaL
.	.	16g	16gg
.	.	16f#y	16ff#y
.	.	16eJ)	16eeJ)
=23	=23	=23	=23
4D	16r	16r	16r
.	(16dL	(16f#yL	(16ff#yL
.	16e)	16g)	16gg)
.	16eJ	16gJ	16ggJ
4r	16f#yL	16aL	16aaL
.	16f#y	16a	16aa
.	16g	16b	16bb
.	16gJ	16bJ	16bbJ
4r	16aL	16cc#L	16ccc#L
.	16a	16cc#y	16ccc#y
.	16b	16dd	16ddd
.	16bJ	16ddJ	16dddJ
=24	=24	=24	=24
.	(<16qa	.	.
.	.	(<16qcc	.
.	.	.	(<16qccc
8GL	8gL)	8bL)	8bbL)
8G	16f#y	16a	16aa
.	16eJ	16gJ	16ggJ
8A	4d	4f#y	4ff#y
8A	.	.	.
8AA	4c#	4eT	4eeT
8AAJ	.	.	.
!!LO:LB
=25	=25	=25	=25
4FF#y	4A	16r	16r
.	.	(16dL	(16ddL
.	.	16c#	16cc
.	.	16dJ	16ddJ
4r	4r	16eL	16eeL
.	.	16d	16dd
.	.	16f#y	16ff#y
.	.	16eJ	16eeJ
4r	4r	16gL	16ggL
.	.	16f#y	16ff#y
.	.	16e	16ee
.	.	16d#J)	16dd#J)
=26	=26	=26	=26
4GG	4B	16r	16r
.	.	(16eL	(16eeL
.	.	16d	16dd
.	.	16eJ	16eeJ
4r	4r	16f#yL	16ff#yL
.	.	16e	16ee
.	.	16g	16gg
.	.	16f#yJ	16ff#yJ
4C#	4e	16aL	16aaL
.	.	16g	16gg
.	.	16f#y	16ff#y
.	.	16eJ)	16eeJ)
=27	=27	=27	=27
4D	16r	16r	16r
.	(16dL	(16f#yL	(16ff#yL
.	16e)	16g)	16gg)
.	16eJ	16gJ	16ggJ
4r	16f#yL	16aL	16aaL
.	16f#y	16a	16aa
.	16g	16b	16bb
.	16gJ	16bJ	16bbJ
4r	16aL	16cc#L	16ccc#L
.	16a	16cc#y	16ccc#y
.	16b	16dd	16ddd
.	16bJ	16ddJ	16dddJ
!!LO:LB
=28	=28	=28	=28
.	(<16qa	.	.
.	.	(<16qcc	.
.	.	.	(<16qccc
8GL	8gL)	8bL)	8bbL)
8G	16f#y	16a	16aa
.	16eJ	16gJ	16ggJ
8A	4d	4f#y	4ff#y
8A	.	.	.
8AA	4c#	4eT	4eeT
8AAJ	.	.	.
=29	=29	=29	=29
4D	4.d	8dL	8dd
.	.	(8d	4.aa
4DD	.	8f#y	.
.	8d	8aJ)	.
4AA	8c#L	[4a	(24ggL
.	.	.	24ff#y
.	.	.	24eeJ)
.	(16e	.	(24ddL
.	.	.	24ee
.	16gJ)	.	.
.	.	.	24cc#J)
=30	=30	=30	=30
4D	4f#y	8aL]	8dd
.	.	(8f#y	4.a
4FF#y	(8AL	8d	.
.	8F#y)	8AJ)	.
4AA	(8E	4A	(24gL
.	.	.	24f#y
.	.	.	24eJ)
.	8GJ)	.	(24dL
.	.	.	24e
.	.	.	24c#J)
=31	=31	=31	=31
[2DD	(2G	[2A	(2c
8DD]	8F#y)	8A]	8d)
8r	8r	8r	8r
=32:|!	=32:|!	=32:|!	=32:|!
4D	16AL	16dL	2.r
.	16d	16f#y	.
.	16f#y	16a	.
.	16dJ	16f#yJ	.
4D	16AL	16dL	.
.	16d	16f#y	.
.	16f#y	16a	.
.	16dJ	16f#yJ	.
4D	16AL	16dL	.
.	16d	16f#y	.
.	16f#y	16a	.
.	16dJ	16f#yJ	.
=33	=33	=33	=33
4Cn	16AL	16dL	2aa
.	16d	16f#y	.
.	16f#y	16a	.
.	16dJ	16f#yJ	.
4C	16AL	16dL	.
.	16d	16f#y	.
.	16f#y	16a	.
.	16dJ	16f#yJ	.
.	.	.	(<16qgg
4C	16AL	16dL	8ff#yL)
.	16d	16f#y	.
.	16f#y	16a	16ee
.	16dJ	16f#yJ	16ddJ
=34	=34	=34	=34
4BB	16BL	16dL	(8ggL
.	16d	16g	.
.	16g	16b	8ddJ)
.	16dJ	16gJ	.
4BB	16BL	16dL	4dd
.	16d	16g	.
.	16g	16b	.
.	16dJ	16gJ	.
4BB	16BL	16dL	8r
.	16d	16g	.
.	16g	16b	8dd
.	16dJ	16gJ	.
=35	=35	=35	=35
4AA	(2A	16eL	8cc
.	.	16a	.
.	.	16cc	4ccc
.	.	16eJ	.
4AA	.	16dL	.
.	.	16f#y	.
.	.	16a	8aaL
.	.	16f#yJ	.
4DD	4F#y)	16dL	8ff#y
.	.	16f#y	.
.	.	16a	8ccJ
.	.	16AJ	.
!!LO:LB
=36	=36	=36	=36
4GG	[2.G	16GL	(16ccL
.	.	16B	16b)
.	.	16d	(16ee
.	.	16BJ	16ddJ)
4GG	.	16GL	4dd
.	.	16B	.
.	.	16d	.
.	.	16BJ	.
4BB	.	16GL	8r
.	.	16d	.
.	.	16g	8ffn
.	.	16dJ	.
=37	=37	=37	=37
4C	4G]	8e 8c	8ee
.	.	4ee	4ccc
4C	8r	.	.
.	4e	8ddL	8bbL
8CL	.	8cc	8aa
8C#J	8e	8bJ	8ggJ
=38	=38	=38	=38
4D	4d	(8.bLT	(8.ggLT
.	.	32a	32ff
.	.	32bJ)	32ggJ)
8r	8r	4a	4ff#y
(8CnL	(8eL	.	.
8BB	8d	4r	4r
8AAJ)	8cJ)	.	.
=39	=39	=39	=39
4GG	4B	(8.bL	(8.ddL
.	.	32g	32b
.	.	32aJ)	32ccJ)
4r	4r	8bL	8ddL
.	.	8b	8dd
4r	4r	(8b	(8dd
.	.	8ddJ)	8ggJ)
=40	=40	=40	=40
4GG	4G	(8.bL	(8.ddL
.	.	32g	32b
.	.	32aJ)	32ccJ)
8r	8r	4b	4dd
(8GGL	(8BL	.	.
8AA	8c	4r	4r
8BBJ)	8dJ)	.	.
!!LO:LB
=41	=41	=41	=41
4C	4e	(16aL	(16ccL
.	.	16b	16dd
.	.	16cc	16ee
.	.	16aJ)	16ccJ)
4D	4d	(16gL	(16bL
.	.	16a	16cc
.	.	16b	16dd
.	.	16gJ)	16bJ)
4D	4d	(16f#yL	(16aL
.	.	16g	16b
.	.	16a	16cc
.	.	16f#yJ)	16aJ)
=42	=42	=42	=42
.	.	(<16qa	.
.	.	.	(<16qcc
4G	4d	8gL)	8bL)
.	.	16f#y	16a
.	.	16gJ	16gJ
8r	8r	4g	4g
8DL	8BL	.	.
8BB	8d	4r	4r
8DJ	8BJ	.	.
=43	=43	=43	=43
4GG	4G	(8.bL	(8.ddL
.	.	32g	32b
.	.	32aJ)	32ccJ)
4r	4r	8bL	8ddL
.	.	8b	8dd
4r	4r	(8b	(8dd
.	.	8ddJ)	8ggJ)
=44	=44	=44	=44
4GG	4G	(8.bL	(8.ddL
.	.	32g	32b
.	.	32aJ)	32ccJ)
8r	8r	4b	4dd
(8GGL	(8BL	.	.
8AA	8c	4r	8r
8BBJ)	8dJ)	.	8gg
=45	=45	=45	=45
.	.	.	(<16qff#y
8CL	4G	8r	4.ee)
8C	.	4g	.
8C	4r	.	.
.	.	(<16qf#y	.
.	.	.	(<16qdd
8C	.	8eL)	8ccL)
.	.	(<16qd	.
.	.	.	(<16qb
8C	8r	8c)	8a)
8C#J	8e	8BJ	8gJ
!!LO:LB
=46	=46	=46	=46
.	.	(<16qc	.
.	.	.	(<16qa
4D	4d	8BL)	8gL)
.	.	16A	16f#y
.	.	16BJ	16gJ
8DDL	4D	4A	4f#y
8c	.	.	.
8B	4r	4r	4r
8AJ	.	.	.
=47	=47	=47	=47
.	(<16qcc	.	.
.	.	(<16qee	.
4G	8bL)	8ddL)	[2.ddd
.	16a	16cc	.
.	16gJ	16bJ	.
4GG	8gL	8bL	.
.	8g	8b	.
4r	(8g	(8b	.
.	8bJ)	8ddJ)	.
=48	=48	=48	=48
.	(<16qb	.	.
.	.	(<16qdd	.
4D	8aL)	8ccL)	2.ddd_
.	16g	16b	.
.	16f#yJ	16aJ	.
8DDL	4f#y	4a	.
8D	.	.	.
(8D	4r	4r	.
8CJ)	.	.	.
=49	=49	=49	=49
4BB	[2.d	4g	4ddd]
4AA	.	4f#y	4ccc
4GG	.	4g	4bb
=50	=50	=50	=50
.	.	(<16qa	.
.	.	.	(<16qccc
8DDL	4d]	8gL)	8bbL)
8DJ	.	16f#y	16aa
.	.	16gJ	16bbJ
8DL	4D	4f#y	4aa
8dJ	.	.	.
16dL	4r	4r	4r
16c	.	.	.
16B	.	.	.
16AJ	.	.	.
=51	=51	=51	=51
.	.	(<16qee	.
.	.	.	(<16qccc
4G	8r	8ddL)	8bbL)
.	8d	16cc	16aa
.	.	16bJ	16ggJ
4r	(8gL	8bL	8ggL
.	8bJ)	8b	8gg
4r	4dd	(8b	(8gg
.	.	8ddJ)	8bbJ)
=52	=52	=52	=52
.	.	(<16qdd	.
.	.	.	(<16qbb
4D	8r	8ccL)	8aaL)
.	8dL	16b	16gg
.	.	16aJ	16ff#yJ
4r	8f#y	4a	4ff#y
.	8a	.	.
4r	8dd	4r	4r
.	8ccJ	.	.
=53	=53	=53	=53
2.E	2b	2.g 2.G	(8.ggL
.	.	.	32aa
.	.	.	32ggJ)
.	.	.	(8ff#yL
.	.	.	8ee)
.	4g	.	(8dd
.	.	.	8cc#J)
=54	=54	=54	=54
8DL	8aL	8f#yL	4dd
8D	16d	16f#y	.
.	16eJ	16gJ	.
8D	16f#yL	16aL	4r
.	16g	16b	.
8D	16a	16cc	.
.	16gJ	16bJ	.
.	(<16qb	.	.
.	.	(<16qdd	.
8C	8aL)	8ccL)	4r
8CJ	16g	16b	.
.	16f#yJ	16aJ	.
=55	=55	=55	=55
8BBL	8gL	8ddL	[2gg
8BB	8g	8dd	.
8BB	8g	8dd	.
8BB	8g	8dd	.
8BB	8g	8dd	8ggL]
8BBJ	8gJ	8ddJ	8ffnJ
=56	=56	=56	=56
8CL	8gL	8ddL	(8dd#L
8C	8gJ	(16cc	8eeJ)
.	.	16bJ)	.
8C	(8.gL	(8ccL	4ee
8C	.	8b	.
.	32a	.	.
.	32bJ	.	.
8C	8ccL)	8a	8r
8CJ	8bJ	8gJ)	8ee
!!LO:LB
=57	=57	=57	=57
8DL	8aL	8f#yL	8ee
8D	8a	8f#y	4ddn
8D	8a	8f#y	.
8D	8a	8f#y	16aL
.	.	.	16bJ
8D	8f#y	8a	(24ccL
.	.	.	24b
.	.	.	24aJ)
8DJ	8f#yJ	8aJ	(24eeL
.	.	.	24dd
.	.	.	24ccJ)
=58	=58	=58	=58
8EL	(4f#y	(4a	(8.ccLT
8E	.	.	.
.	.	.	32b
.	.	.	32ccJ)
8E	8gL)	4g)	4b
(8E	(8g	.	.
8D	8f#y	4r	4r
8CJ)	8eJ)	.	.
=59	=59	=59	=59
4BB	4d 4G	16r	16r
.	.	(16gL	(16ggL
.	.	16a	16aa
.	.	16gJ)	16ggJ)
4r	4r	(16f#yL	(16ff#yL
.	.	16g)	16gg)
.	.	(16e	(16ee
.	.	16dJ)	16ddJ)
4r	4r	(16cL	(16ccL
.	.	16B)	16b)
.	.	(16A	(16a
.	.	16GJ)	16gJ)
=60	=60	=60	=60
4C	4e	16r	16r
.	.	(16aL	(16aaL
.	.	16b	16bb
.	.	16aJ)	16aaJ)
4r	4r	(16g#L	(16gg#L
.	.	16a)	16aa)
.	.	(16gn	(16ggn
.	.	16f#yJ)	16ff#yJ)
4F#y	4A	(16eL	(16eeL
.	.	16d	16dd
.	.	16A	16a
.	.	16cJ)	16ccJ)
!!LO:LB
=61	=61	=61	=61
4G	16r	16r	16r
.	(16GL	(16BL	(16bL
.	16A)	16c)	16cc)
.	16AJ	16cJ	16ccJ
4r	16BL	16dL	16ddL
.	16B	16d	16dd
.	16c	16e	16ee
.	16cJ	16eJ	16eeJ
4r	16dL	16f#yL	16ff#yL
.	16d	16f#y	16ff#y
.	16e	16g	16gg
.	16eJ	16gJ	16ggJ
=62	=62	=62	=62
.	(<16qd	.	.
.	.	(<16qf#y	.
.	.	.	(<16qff#y
8CL	8cL)	8eL)	8eeL)
8C	16B	16d	16dd
.	16AJ	16cJ	16ccJ
8D	4G	4B	4b
8D	.	.	.
8D	4F#y	4AT	4aT
8DJ	.	.	.
=63	=63	=63	=63
4BB	4d 4G	16r	16r
.	.	(16gL	(16ggL
.	.	16a	16aa
.	.	16gJ)	16ggJ)
4r	4r	(16f#yL	(16ff#yL
.	.	16g)	16gg)
.	.	(16e	(16ee
.	.	16dJ)	16ddJ)
4r	4r	(16cL	(16ccL
.	.	16B)	16b)
.	.	(16A	(16a
.	.	16GJ)	16gJ)
=64	=64	=64	=64
4C	4e	16r	16r
.	.	(16aL	(16aaL
.	.	16b	16bb
.	.	16aJ)	16aaJ)
4r	4r	(16g#L	(16gg#L
.	.	16a)	16aa)
.	.	(16gn	(16ggn
.	.	16f#yJ)	16ff#yJ)
4F#y	4A	(16eL	(16eeL
.	.	16d	16dd
.	.	16A	16a
.	.	16cJ)	16ccJ)
!!LO:LB
=65	=65	=65	=65
4G	16r	16r	16r
.	(16GL	(16BL	(16bL
.	16A)	16c)	16cc)
.	16AJ	16cJ	16ccJ
4r	16BL	16dL	16ddL
.	16B	16d	16dd
.	16c	16e	16ee
.	16cJ	16eJ	16eeJ
4r	16dL	16f#yL	16ff#yL
.	16d	16f#y	16ff#y
.	16e	16g	16gg
.	16eJ	16gJ	16ggJ
=66	=66	=66	=66
.	(<16qd	.	.
.	.	(<16qf#y	.
.	.	.	(<16qff#y
8CL	8cL)	8eL)	8eeL)
8C	16B	16d	16dd
.	16AJ	16cJ	16ccJ
8D	4G	4B	4b
8D	.	.	.
8D	4F#y	4AT	4aT
8DJ	.	.	.
=67	=67	=67	=67
4.G	8GL	8GL	8g
.	(8d	(8g	4.ddd
.	8g	8b	.
8B	8bJ)	8ddJ)	.
4d	(8aL	[4dd	(24cccL
.	.	.	24bb
.	.	.	24aaJ)
.	8ccJ)	.	(24ggL
.	.	.	24aa
.	.	.	24ff#yJ)
=68	=68	=68	=68
4G	8bL	8ddL]	8gg
.	(8g	(8b	4.dd
4BB	8d	8g	.
.	8BJ)	8dJ)	.
4D	(8F#yL	(8AL	(24ccL
.	.	.	24b
.	.	.	24aJ)
.	8AJ)	8cJ)	(24gL
.	.	.	24a
.	.	.	24f#yJ)
=69	=69	=69	=69
[2GG	(2A	(2c	(2f#y
8GG]	8G)	8B)	8g)
8r	8r	8r	8r
=:|!	=:|!	=:|!	=:|!
*-	*-	*-	*-
!!!RDF**kern: < = below
